app/dist/common/images/mueller-industries.svg

<svg height="18" width="18" xmlns="http://www.w3.org/2000/svg"><path d="m0 0h18v18h-18z" fill="#9c562a"/><g fill="#fff"><path d="m13.474 5-4.495 3.07-4.442-3.07z"/><path d="m4 8v5h3v-1.351l2.01 1.351 1.99-1.363v1.363h3v-5h-3.274l-1.726 1.333-1.726-1.333z"/></g></svg>

<!-- by TradingView --><svg width="18" height="18" xmlns="http://www.w3.org/2000/svg"><path fill="#9C562A" d="M0 0h18v18H0z"/><path d="M13.474 5L8.979 8.07 4.537 5h8.937z" fill="#fff"/><path d="M4 8v5h3v-1.351L9.01 13 11 11.637V13h3V8h-3.274L9 9.333 7.274 8H4z" fill="#fff"/></svg>
